X: 29
T: the Fandango
%%VWML:Thompsons1774-3047-p15-0
F:http://www.vwml.org/record/Thompsons1774/3047/p15
M: 6/8
L: 1/8
Z: 2011 John Chambers <jc:trillian.mit.edu>
B: Charles & Samuel Thompson eds "Twenty Four Country Dances", London 1774, p.15 #1 
K: D
%-------------------------
|:d2ddcd|B2GFGA|d2dd3 |fdaf2d|\
d2d dcd | B2G FGA | d2d d2g | e2a f2d :| |: aba f2d | AFd AFd | aba f2d | BGd BGd |\
abaf2d|B2GF2A|B2de2c|d3-d3 :|
% - - - - - - - - Dance description - - - - - - - -
%%begintext align
%% Turn Right hands & cast off 1 Cu. .|. turn Left hands and 
%% cast off below the 3d Cu. :|. hands 6 round .|: lead up the 
%% middle & cast off 1 Cu. :|: turn corners & turn your
%% Part: .||. the same at the other corners :||. Man whole 
%% figure at bottom & Wo. at top the same time .||: then the 
%% Wo. hey at bottom & Man at top :||:
%%endtext
T: Miss Hamiltons Reel 
R: reel
M: C|
L: 1/8
Z: 2011 John Chambers <jc:trillian.mit.edu>
B: Charles & Samuel Thompson eds "Twenty Four Country Dances", London 1774, p.15 #2 
K: D
%-------------------------
f | d2AG F>GA>B | d2A>F E3f | d2AG F>GA>g | (f/g/)a ef d3 :| |: g | f>ed>e c>de>g | f>ed>f g3a | f>ed>e c>de>g (f/g/)a ef d3 :| % - - - - - - - - Dance description - - - - - - - -
%%begintext align
%% Cast off 2 Cu. .|. up again :|. lead down
%% the middle up again & cast off .|: :|: set
%% corners & turn .||. the same at the other
%% corners :||. hey up & down & foot it
%% out .||: :||:
%%endtext
